X: 10762
Q: "Slow and Distinct."
M: 2/4
L: 1/8
K: F
(A/B/c) (.c.c) | B<d Td2 | (A/B/c) AF | E>G G>B |\
f |\
f |\
afdf | ecfd | {d}cB/A/ {c}BA/G/ | {E}F2 F |]


